X:1
T:Nobody's Business If I Do
M:4/4
L:1/4
K:Bb
 d ^c d B| =c =B c A| _B A B d| A4| z G A =B| A2 G2| c4| d4| e d e c|\
 d ^c d =B| =c d c _B| G4| z c =B c| d c _B G| B4| A4| ^c d2 d| =c3/2 d/2c/2 d3/2|\
 z z/2 G/2 B B| _d- c/2B/2 G/2 B3/2| d f d/2 B3/2| F/2 E/2- E2 c/2B/2|\
 B4-| B3 z| ^c d- d d| =c3/2 d/2c/2 d3/2| z B B3/2 B/2| B G B/2 G3/2|\
 d f d/2 B3/2| F/2 E3/2_d/2-c/2B/2-G/2| B4-| B3 z| ^c d- d d| =c3/2 d/2c/2 d3/2|\
 z z/2 G/2 B B|B/2-G/2 B B/2 G3/2| d f d/2 B3/2| F/2 E3/2 c B/2 B/2-|\
 B4-| B2 z F| ^c d- d d| =c d c/2 d3/2| z B B B| _d/2 c B/2G/2 B3/2|\
 d f d/2 B3/2| F/2 E3/2- E c/2B/2| B4-| B3 z|
